usr/share/icons/biglinux-icons-material-dark/22/actions/distribute-graph-directed.svg

<svg xmlns="http://www.w3.org/2000/svg" viewBox="0 0 22 22">
  <defs id="defs3051">
    <style type="text/css" id="current-color-scheme">
      .ColorScheme-Text {
        color:#dedede;
      }
      .ColorScheme-Highlight {
        color:#3daee9;
      }
      </style>
  </defs>
 <path 
    style="fill:currentColor;fill-opacity:1;stroke:none" 
	d="M 15.78125 5.5625 L 11.9375 9.75 L 12.6875 10.4375 L 16.53125 6.25 C 16.389586 6.114608 16.057853 5.827192 15.78125 5.5625 z M 6.21875 5.625 L 5.46875 6.3125 L 9.2773438 10.414062 L 10.03125 9.71875 L 6.21875 5.625 z M 10.5 13.4375 L 10.5 15.5625 L 11.5 15.5625 L 11.5 13.4375 C 11.102857 13.4419 10.795206 13.438196 10.5 13.4375 z "
	class="ColorScheme-Text"
    />
  <path
    style="fill:currentColor;fill-opacity:1;stroke:none" 
    d="M 4.5 3 A 1.4999959 1.5 0 0 0 3 4.5 A 1.4999959 1.5 0 0 0 4.5 6 A 1.4999959 1.5 0 0 0 6 4.5 A 1.4999959 1.5 0 0 0 4.5 3 z M 17.5 3 A 1.4999959 1.5 0 0 0 16 4.5 A 1.4999959 1.5 0 0 0 17.5 6 A 1.4999959 1.5 0 0 0 19 4.5 A 1.4999959 1.5 0 0 0 17.5 3 z M 11 10 A 1.4999959 1.5 0 0 0 9.5 11.5 A 1.4999959 1.5 0 0 0 11 13 A 1.4999959 1.5 0 0 0 12.5 11.5 A 1.4999959 1.5 0 0 0 11 10 z M 11 16 A 1.4999959 1.5 0 0 0 9.5 17.5 A 1.4999959 1.5 0 0 0 11 19 A 1.4999959 1.5 0 0 0 12.5 17.5 A 1.4999959 1.5 0 0 0 11 16 z "
	class="ColorScheme-Highlight"
     id="path10" />
</svg>

<svg xmlns="http://www.w3.org/2000/svg" viewBox="0 0 22 22">
<defs id="defs3051">
<style id="current-color-scheme" type="text/css">
.ColorScheme-Text{color:#dedede}.ColorScheme-Highlight{color:#3daee9}
</style>
</defs>
<path d="M15.781 5.563 11.937 9.75l.75.688 3.844-4.188c-.141-.135-.473-.423-.75-.687m-9.562.062-.75.688 3.808 4.101.754-.695zm4.281 7.813v2.124h1v-2.124c-.397.004-.705 0-1 0" class="ColorScheme-Text" style="fill:currentColor;fill-opacity:1;stroke:none"/>
<path id="path10" d="M4.5 3A1.5 1.5 0 0 0 3 4.5 1.5 1.5 0 0 0 4.5 6 1.5 1.5 0 0 0 6 4.5 1.5 1.5 0 0 0 4.5 3m13 0A1.5 1.5 0 0 0 16 4.5 1.5 1.5 0 0 0 17.5 6 1.5 1.5 0 0 0 19 4.5 1.5 1.5 0 0 0 17.5 3M11 10a1.5 1.5 0 0 0-1.5 1.5A1.5 1.5 0 0 0 11 13a1.5 1.5 0 0 0 1.5-1.5A1.5 1.5 0 0 0 11 10m0 6a1.5 1.5 0 0 0-1.5 1.5A1.5 1.5 0 0 0 11 19a1.5 1.5 0 0 0 1.5-1.5A1.5 1.5 0 0 0 11 16" class="ColorScheme-Highlight" style="fill:currentColor;fill-opacity:1;stroke:none"/>
</svg>
